X:1
T:Contentment
M:6/8
L:1/8
K:A
 E| A2 c e2 f| d2 d c2 B| c2 A d2 c| B3- B2 A| A2 c e2 f| d2 d c2 B|\
 c2 A d2 c| B3- B2 A| c2 A F2 A| B2 G E2 E| A2 A d2 c| c2-d/2-c/2 B2 E|\
 A2 c e2 f| d2 d c2 A|B-c dB-A G| A3- A2||

